packages/foundations/assets/icons/functional/images/social/face_delighted_14.svg

<svg width="14" height="14" viewBox="0 0 14 14" fill="none" xmlns="http://www.w3.org/2000/svg">
<g clip-path="url(#clip0_187_351)">
<path fill-rule="evenodd" clip-rule="evenodd" d="M10.5 7C10.5 8.9299 8.92988 10.5 6.99998 10.5C5.07008 10.5 3.49998 8.9299 3.49998 7C3.49998 5.0701 5.07008 3.5 6.99998 3.5C8.92988 3.5 10.5 5.0701 10.5 7ZM2.09998 7C2.09998 9.7062 4.29378 11.9 6.99998 11.9C9.70618 11.9 11.9 9.7062 11.9 7C11.9 4.2938 9.70618 2.1 6.99998 2.1C4.29378 2.1 2.09998 4.2938 2.09998 7ZM8.43988 7.5978C8.25298 7.4655 8.00028 7.4613 7.80708 7.5845C7.79518 7.5922 7.50538 7.7742 6.98738 7.7742C6.46938 7.7742 6.17958 7.5915 6.17608 7.5894C5.98218 7.4557 5.72528 7.4557 5.53348 7.5922C5.34168 7.7273 5.25418 7.9695 5.31578 8.1963C5.43478 8.6352 5.94018 9.4647 6.99718 9.4647C8.06258 9.4647 8.55188 8.6275 8.66108 8.1844C8.71708 7.9625 8.62608 7.7322 8.43988 7.5978ZM5.62728 6.5905C5.64758 6.5723 5.75748 6.4799 5.90518 6.5156C6.28248 6.601 6.65838 6.3714 6.74728 5.9948C6.83618 5.6189 6.60308 5.2416 6.22718 5.1527C5.30388 4.9357 4.69488 5.5419 4.62768 5.6112C4.36728 5.8842 4.37988 6.3049 4.64448 6.5744C4.77888 6.7116 4.95878 6.7795 5.14008 6.7795C5.31508 6.7795 5.49008 6.7165 5.62728 6.5905ZM9.37298 5.6112C9.30578 5.5405 8.69748 4.9336 7.77348 5.1527C7.39688 5.2416 7.16448 5.6189 7.25338 5.9948C7.34228 6.3714 7.71958 6.601 8.09548 6.5156C8.23968 6.482 8.34678 6.5674 8.37198 6.5891C8.50848 6.7249 8.68698 6.7935 8.86688 6.7935C9.04048 6.7935 9.21408 6.7291 9.34988 6.6003C9.62918 6.3336 9.63968 5.8905 9.37298 5.6112Z" fill="#1A1C1F"/>
</g>
<defs>
<clipPath id="clip0_187_351">
<rect width="14" height="14" fill="white"/>
</clipPath>
</defs>
</svg>

<svg xmlns="http://www.w3.org/2000/svg" width="14" height="14" fill="none"><g clip-path="url(#a)"><path fill="#1A1C1F" fill-rule="evenodd" d="M10.5 7c0 1.93-1.57 3.5-3.5 3.5S3.5 8.93 3.5 7 5.07 3.5 7 3.5s3.5 1.57 3.5 3.5M2.1 7a4.9 4.9 0 1 0 9.8 0 4.9 4.9 0 0 0-9.8 0m6.34.598a.57.57 0 0 0-.633-.013c-.012.007-.302.19-.82.19s-.807-.184-.81-.186a.56.56 0 0 0-.861.607c.119.44.624 1.269 1.681 1.269 1.066 0 1.555-.838 1.664-1.28a.56.56 0 0 0-.221-.587M5.627 6.59c.02-.018.13-.11.278-.074a.7.7 0 0 0 .322-1.363c-.923-.217-1.532.389-1.6.458a.69.69 0 0 0 .017.963.7.7 0 0 0 .496.205c.175 0 .35-.062.487-.189m3.746-.979c-.067-.07-.676-.677-1.6-.458a.7.7 0 1 0 .322 1.363.32.32 0 0 1 .277.073.7.7 0 0 0 1.001-.978" clip-rule="evenodd"/></g><defs><clipPath id="a"><path fill="#fff" d="M0 0h14v14H0z"/></clipPath></defs></svg>
